SVG_Azure_All/SQL Database Query Performance Insight.svg

<?xml version="1.0" encoding="UTF-8" standalone="no"?>
<!-- Generated by Microsoft Visio, SVG Export SQL Database Query Performance Insight.svg Page-1 -->

<svg
   xmlns:dc="http://purl.org/dc/elements/1.1/"
   xmlns:cc="http://creativecommons.org/ns#"
   xmlns:rdf="http://www.w3.org/1999/02/22-rdf-syntax-ns#"
   xmlns:svg="http://www.w3.org/2000/svg"
   xmlns="http://www.w3.org/2000/svg"
   xmlns:sodipodi="http://sodipodi.sourceforge.net/DTD/sodipodi-0.dtd"
   xmlns:inkscape="http://www.inkscape.org/namespaces/inkscape"
   width="0.78739917in"
   height="0.78742772in"
   viewBox="0 0 56.692739 56.694937"
   xml:space="preserve"
   class="st7"
   version="1.1"
   id="svg49"
   sodipodi:docname="SQL Database Query Performance Insight.svg"
   style="font-size:12px;overflow:visible;color-interpolation-filters:sRGB;fill:none;fill-rule:evenodd;stroke-linecap:square;stroke-miterlimit:3"
   inkscape:version="0.92.5 (2060ec1f9f, 2020-04-08)"><metadata
   id="metadata55"><rdf:RDF><cc:Work
       rdf:about=""><dc:format>image/svg+xml</dc:format><dc:type
         rdf:resource="http://purl.org/dc/dcmitype/StillImage" /></cc:Work></rdf:RDF></metadata><defs
   id="defs53" /><sodipodi:namedview
   pagecolor="#ffffff"
   bordercolor="#666666"
   borderopacity="1"
   objecttolerance="10"
   gridtolerance="10"
   guidetolerance="10"
   inkscape:pageopacity="0"
   inkscape:pageshadow="2"
   inkscape:window-width="640"
   inkscape:window-height="480"
   id="namedview51"
   showgrid="false"
   inkscape:zoom="1.8365233"
   inkscape:cx="37.795184"
   inkscape:cy="18.900351"
   inkscape:window-x="0"
   inkscape:window-y="0"
   inkscape:window-maximized="0"
   inkscape:current-layer="svg49" />
	<style
   type="text/css"
   id="style2">
	<![CDATA[
		.st1 {fill:#b8d432;stroke:none;stroke-linecap:butt;stroke-width:0.038081}
		.st2 {fill:#57a300;stroke:none;stroke-linecap:butt;stroke-width:0.038081}
		.st3 {fill:#6dc2e9;stroke:none;stroke-linecap:butt;stroke-width:0.038081}
		.st4 {fill:#804998;stroke:none;stroke-linecap:butt;stroke-width:0.038081}
		.st5 {fill:#808080;stroke:none;stroke-linecap:butt;stroke-width:0.038081}
		.st6 {fill:#ffffff;stroke:none;stroke-linecap:butt;stroke-width:0.038081}
		.st7 {fill:none;fill-rule:evenodd;font-size:12px;overflow:visible;stroke-linecap:square;stroke-miterlimit:3}
	]]>
	</style>

	<g
   id="g47"
   transform="translate(-5.6693772,-5.6693596)">
		<title
   id="title4">Page-1</title>
		<g
   id="group1320-1"
   transform="translate(5.66929,-34.0157)">
			<title
   id="title6">SQL Database Query Performance Insight</title>
			<g
   id="group1321-2">
				<title
   id="title8">Sheet.1321</title>
				<g
   id="shape1322-3"
   transform="translate(3.77083,-45.355)">
					<title
   id="title10">Sheet.1322</title>
					<ellipse
   cx="18.8965"
   cy="90.709"
   rx="18.8965"
   ry="5.6689401"
   class="st1"
   id="ellipse12"
   style="fill:#b8d432;stroke:none;stroke-width:0.038081;stroke-linecap:butt" />
				</g>
				<g
   id="shape1323-5"
   transform="translate(7.91909,-45.355)">
					<title
   id="title15">Sheet.1323</title>
					<path
   d="M 29.5,94.25 C 26.04,92.96 20.72,92.13 14.75,92.13 8.78,92.13 3.46,92.96 0,94.25 c 3.46,1.3 8.78,2.13 14.75,2.13 5.97,0 11.29,-0.83 14.75,-2.13 z"
   class="st2"
   id="path17"
   inkscape:connector-curvature="0"
   style="fill:#57a300;stroke:none;stroke-width:0.038081;stroke-linecap:butt" />
				</g>
				<g
   id="shape1324-7">
					<title
   id="title20">Sheet.1324</title>
					<path
   d="m 45.36,47.24 -0.01,40.64 c 0,4.69 -10.15,8.5 -22.67,8.5 C 10.16,96.38 0,92.57 0,87.88 L 0.01,47.24 c 0,4.7 10.15,8.5 22.67,8.5 12.52,0 22.68,-3.8 22.68,-8.5 z"
   class="st3"
   id="path22"
   inkscape:connector-curvature="0"
   style="fill:#6dc2e9;stroke:none;stroke-width:0.038081;stroke-linecap:butt" />
				</g>
				<g
   id="shape1325-9"
   transform="translate(3.77788,-22.6687)">
					<title
   id="title25">Sheet.1325</title>
					<path
   d="M 0,77.48 H 11.34 V 88.81 H 0 Z m 22.67,7.56 H 34.01 V 96.38 H 22.67 Z m 18.9,-18.9 H 52.91 V 77.48 H 41.57 Z"
   class="st4"
   id="path27"
   inkscape:connector-curvature="0"
   style="fill:#804998;stroke:none;stroke-width:0.038081;stroke-linecap:butt" />
				</g>
				<g
   id="shape1326-11"
   transform="translate(7.55929,-26.4539)">
					<title
   id="title30">Sheet.1326</title>
					<path
   d="m 0,85.04 22.67,7.56 18.9,-18.9 3.78,3.78 -19.45,18.34 0.56,0.56 -1.9,-0.01 L 0,88.81 Z"
   class="st4"
   id="path32"
   inkscape:connector-curvature="0"
   style="fill:#804998;stroke:none;stroke-width:0.038081;stroke-linecap:butt" />
				</g>
				<g
   id="shape1327-13"
   transform="translate(3.77788)">
					<title
   id="title35">Sheet.1327</title>
					<rect
   x="0"
   y="77.476799"
   width="52.915001"
   height="18.901199"
   class="st5"
   id="rect37"
   style="fill:#808080;stroke:none;stroke-width:0.038081;stroke-linecap:butt" />
				</g>
				<g
   id="shape1328-15"
   transform="translate(7.55929,-3.77812)">
					<title
   id="title40">Sheet.1328</title>
					<path
   d="M 0,96.38 H 45.35 V 85.04 H 0 Z M 3.78,92.6 H 7.56 V 88.82 H 3.78 Z"
   class="st6"
   id="path42"
   inkscape:connector-curvature="0"
   style="fill:#ffffff;stroke:none;stroke-width:0.038081;stroke-linecap:butt" />
				</g>
			</g>
		</g>
	</g>
</svg>

<?xml version="1.0" encoding="UTF-8" standalone="no"?>
<!DOCTYPE svg PUBLIC "-//W3C//DTD SVG 1.1//EN" "http://www.w3.org/Graphics/SVG/1.1/DTD/svg11.dtd">
<!-- Generated by Microsoft Visio, SVG Export SQL Database Query Performance Insight.svg Page-1 -->
<svg xmlns="http://www.w3.org/2000/svg" xmlns:xlink="http://www.w3.org/1999/xlink" xmlns:ev="http://www.w3.org/2001/xml-events"
		width="0.944882in" height="1.33858in" viewBox="0 0 68.0315 96.378" xml:space="preserve" color-interpolation-filters="sRGB"
		class="st7">
	<style type="text/css">
	<![CDATA[
		.st1 {fill:#b8d432;stroke:none;stroke-linecap:butt;stroke-width:0.038081}
		.st2 {fill:#57a300;stroke:none;stroke-linecap:butt;stroke-width:0.038081}
		.st3 {fill:#6dc2e9;stroke:none;stroke-linecap:butt;stroke-width:0.038081}
		.st4 {fill:#804998;stroke:none;stroke-linecap:butt;stroke-width:0.038081}
		.st5 {fill:#808080;stroke:none;stroke-linecap:butt;stroke-width:0.038081}
		.st6 {fill:#ffffff;stroke:none;stroke-linecap:butt;stroke-width:0.038081}
		.st7 {fill:none;fill-rule:evenodd;font-size:12px;overflow:visible;stroke-linecap:square;stroke-miterlimit:3}
	]]>
	</style>

	<g>
		<title>Page-1</title>
		<g id="group1305-1" transform="translate(5.66929,-34.0157)">
			<title>SQL Database Query Performance Insight</title>
			<g id="group1306-2">
				<title>Sheet.1306</title>
				<g id="shape1307-3" transform="translate(3.77083,-45.355)">
					<title>Sheet.1307</title>
					<ellipse cx="18.8965" cy="90.709" rx="18.8965" ry="5.66894" class="st1"/>
				</g>
				<g id="shape1308-5" transform="translate(7.91909,-45.355)">
					<title>Sheet.1308</title>
					<path d="M29.5 94.25 C26.04 92.96 20.72 92.13 14.75 92.13 C8.78 92.13 3.46 92.96 0 94.25 C3.46 95.55 8.78 96.38
								 14.75 96.38 C20.72 96.38 26.04 95.55 29.5 94.25 Z" class="st2"/>
				</g>
				<g id="shape1309-7">
					<title>Sheet.1309</title>
					<path d="M45.36 47.24 L45.35 87.88 C45.35 92.57 35.2 96.38 22.68 96.38 C10.16 96.38 0 92.57 0 87.88 L0.01 47.24
								 C0.01 51.94 10.16 55.74 22.68 55.74 C35.2 55.74 45.36 51.94 45.36 47.24 Z" class="st3"/>
				</g>
				<g id="shape1310-9" transform="translate(3.77788,-22.6687)">
					<title>Sheet.1310</title>
					<path d="M0 77.48 L11.34 77.48 L11.34 88.81 L0 88.81 L0 77.48 ZM22.67 85.04 L34.01 85.04 L34.01 96.38 L22.67
								 96.38 L22.67 85.04 ZM41.57 66.14 L52.91 66.14 L52.91 77.48 L41.57 77.48 L41.57 66.14 Z"
							class="st4"/>
				</g>
				<g id="shape1311-11" transform="translate(7.55929,-26.4539)">
					<title>Sheet.1311</title>
					<path d="M0 85.04 L22.67 92.6 L41.57 73.7 L45.35 77.48 L25.9 95.82 L26.46 96.38 L24.56 96.37 L0 88.81 L0 85.04
								 Z" class="st4"/>
				</g>
				<g id="shape1312-13" transform="translate(3.77788,1.42109E-14)">
					<title>Sheet.1312</title>
					<rect x="0" y="77.4768" width="52.915" height="18.9012" class="st5"/>
				</g>
				<g id="shape1313-15" transform="translate(7.55929,-3.77812)">
					<title>Sheet.1313</title>
					<path d="M0 96.38 L45.35 96.38 L45.35 85.04 L0 85.04 L0 96.38 ZM3.78 92.6 L7.56 92.6 L7.56 88.82 L3.78 88.82
								 L3.78 92.6 Z" class="st6"/>
				</g>
			</g>
		</g>
	</g>
</svg>
